X:208
T:West Wind (reel), The   
B:CRE1.072 (Ghaoth Aniar)
F:file ID: cre.1/208west_w
S:Willie Clancy
M:C
L:1/8
Q:180
R:reel
K:G
(3B^cd GA BGdB|ADFG ABcA|(3B^cd GA BGdB|cAFG AGG2|
(3B^cd GA BGdB|AD~D2 ABcA|G2Bd g2de|fdcA AGG2||
%B
G2Bd g3e|f2f2 ABcA|G2Bd g2de|fdcA BGcA|
G2Bd g3e|f2fd ABcA|g3a bgag|fdcA AGG2||
%C
B2Gd B2Gd|A2Fd ~A2Fd|B2Gd ~B2Gd|cADF AGGd|
B2GA BGdB|AD~D2 ABcA|G2Bd gfde|fdcA AGG2||

%%%

